X:91
T: Aki leány akar lenni
M: 4/4
L: 1/4
K: F
ggde | fedc | 
fedc | dddd | 
ggdc | BAGF | 
BAGF | GGGG | 

